X:21
T:score115
L:1/8
M:2/4
I:linebreak $
K:Eb
 z F G/ A/ F/ D/ | E2 E2 | z F G/ A/ F/ D/ | B e d d/ c/ | (f2 B2) |$ %5
[M:3/4]"_sentito"[Q:1/4=40]"^Largamente" g3 e (3e d c | B2 (3A A A A3/2 G/ | %7
"_a tempo" E2- E z z2 |] %8
